X: 1670
T: Little Rose Is Gone
B: australian traditional tunes wiki
M:4/4
L:1/8
Q: 1/4=100
K:C
V:1 
||"C"[e2e2][e2e2][c2e2][A2e2]|GGAG g4|[e2e2][e2e2][c2e2][A2e2]|G2AGE4|
[e2e2][e2e2][c2e2][A2e2]|GGAGg4|abag eged|c2c2GGAG |
E2E2|\\
"Am"A2A2A3B|c2AAG2AB|cBAG EDEG|
AA2Bc2d2|e2g2eded|^c2A2GGAG|E2E2[A2A2][A2A2]:|
% abcbook-tune_id 6342d53aceeed3bfd3372352


% abcbook-boost 0
% abcbook-tablature 
% abcbook-transpose 
% abcbook-lastupdated 1665324377125
% abcbook-soundfonts 
% abcbook-repeats 1
% NFF Book 2019

